!!!OTL: Jm May.
!!!OTL-incipit:WILLKOMMEN LIEBER MAI
!!!COM: J. Fr. Reichardt.
!!!ARE: Europa, Mitteleuropa, Deutschland
!!!SCT: F0249
!!!TXL: @@DE
!!!YEM: Copyright 1995, estate of Helmut Schaffrath.
**kern	**text
*ICvox	*
*clefG2	*
*M6/8	*
*k[]	*
*C:	*
!LO:TX:a:t=Munter.	!
{8g	1._Will-
=1	=1
4cc/	-kom-
8cc/	-men,
8.dd/L	lie-
16eeJ	.
8dd/	-ber
=2	=2
8.b/L	May!
16aJ	.
8b/	ſo
4cc/}	ſchön
{8g	hab'
=3	=3
4ee	ich
8ee	dich
8ddL	lange
8eeJ	.
8dd	.
=4	=4
8ccL	nicht
8bJ	.
8a	ge-
4g}	-ſehn!
{8dd/	Die
=5	=5
4dd/	Luft
8b/	iſt
4g	warm,
8gg	der
=6	=6
4gg/	Himmel
8ee	.
4cc/}	blau,
{8g	die
=7	=7
4a	Bäu-
8a	-me
8dd/L	grün,
8eeJ	.
8ff/	und
=8	=8
4cc/	grün
8b/	die
4cc}/	Au'!
==	==
!!!AGN: Jugend - Lied, Jahreszeiten, Fruehling
!!!ONB: ESAC (Essen Associative Code) Database: FINK
!!!AMT: compound duple
!!!AIN: vox
!!!EED: Helmut Schaffrath
!!!EEV: 1.0
!!!GTL: Lieder zum Preise der Natur
!!!source: Musikalischer Hausschatz der Deutschen. Eine Sammlung von über 1000 Liedern und Gesängen mit Singstimmen und Klavierbegleitung. Leipzig, Litterarisches Verlags-Haus.
!!!page: 149
!!!URL-scan: https://www.digitale-sammlungen.de/en/view/bsb11144622?page=625
!!!ENC: Anna Maria Matuszewska
!!!EEV: 2024/08/08
*-	*-
